!!!COM: Messiaen, Olivier (Eugène Prosper Charles)
!!!OTL: Turangalîla, Symphony for Solo Piano, Ondes Martenot and Orchestra
!!!OMV: X: Final
!!!example: 776
!!!work: Mes-22
**kern	**kern	**kern	**kern	**kern	**kern	**kern	**kern	**kern	**kern	**dynam	**kern	**dynam	**kern	**dynam	**kern	**dynam	**kern	**dynam	**kern	**dynam	**kern	**dynam	**kern	**dynam	**kern	**dynam	**kern	**dynam	**kern	**kern	**kern	**kern	**kern
*part23	*part22	*part21	*part20	*part19	*part18	*part17	*part16	*part15	*part15	*part15	*part14	*part14	*part13	*part13	*part12	*part12	*part11	*part11	*part10	*part10	*part9	*part9	*part8	*part8	*part7	*part7	*part6	*part6	*part5	*part4	*part3	*part2	*part1
*staff24	*staff23	*staff22	*staff21	*staff20	*staff19	*staff18	*staff17	*staff16	*staff15	*	*staff14	*	*staff13	*	*staff12	*	*staff11	*	*staff10	*	*staff9	*	*staff8	*	*staff7	*	*staff6	*	*staff5	*staff4	*staff3	*staff2	*staff1
*I"Contrabass	*I"Violoncello	*I"Violoncello	*I"Viola	*I"Viola	*I"Violin II	*I"Violin II	*I"Violin I	*I"Piano	*	*	*I"Gr. caisse	*	*I"Tam-tam	*	*I"Caisse cl.	*	*I"Tuba	*	*I"Trombone	*	*I"Trombone	*	*I"Trumpet in Bb	*	*I"Horn in F	*	*I"Horn in F	*	*I"Bassoon	*I"Bassoon	*I"Clarinet in A	*I"Clarinet in A	*I"Cor Anglais
*I'Cb.	*I'Vc.	*I'Vc.	*I'Vla.	*I'Vla.	*I'Vln. II	*I'Vln. II	*I'Vln. I	*I'Pno.	*	*	*I'Perc.	*	*I'Perc.	*	*I'Perc.	*	*I'Tba.	*	*I'Tbn.	*	*I'Tbn.	*	*I'Tpt.	*	*I'Hn.	*	*I'Hn.	*	*I'Bsn.	*I'Bsn.	*I'Cl.	*I'Cl.	*I'C. A.
*clefF4	*clefF4	*clefF4	*clefC3	*clefC3	*clefG2	*clefG2	*clefG2	*clefF4	*clefF4	*	*clefpercussion0	*	*clefpercussion0	*	*clefpercussion0	*	*clefF4	*	*clefF4	*	*clefF4	*	*clefG2	*	*clefG2	*	*clefG2	*	*clefF4	*clefC4	*clefF4	*clefG2	*clefG2
*k[]	*k[]	*k[]	*k[]	*k[]	*k[]	*k[]	*k[]	*k[]	*k[]	*	*	*	*	*	*	*	*k[]	*	*k[]	*	*k[]	*	*k[]	*	*	*	*	*	*k[]	*k[]	*k[]	*k[]	*k[]
*	*	*	*	*	*	*	*	*	*	*	*	*	*	*	*	*	*	*	*	*	*	*	*	*	*	*	*	*	*	*	*	*	*
*M3/16	*M3/16	*M3/16	*M3/16	*M3/16	*M3/16	*M3/16	*M3/16	*M3/16	*M3/16	*	*M3/16	*	*M3/16	*	*M3/16	*	*M3/16	*	*M3/16	*	*M3/16	*	*M3/16	*	*M3/16	*	*M3/16	*	*M3/16	*M3/16	*M3/16	*M3/16	*M3/16
*MM150	*MM150	*MM150	*MM150	*MM150	*MM150	*MM150	*MM150	*MM150	*MM150	*	*MM150	*	*MM150	*	*MM150	*	*MM150	*	*MM150	*	*MM150	*	*MM150	*	*MM150	*	*MM150	*	*MM150	*MM150	*MM150	*MM150	*MM150
=303	=303	=303	=303	=303	=303	=303	=303	=303	=303	=303	=303	=303	=303	=303	=303	=303	=303	=303	=303	=303	=303	=303	=303	=303	=303	=303	=303	=303	=303	=303	=303	=303	=303
16FFnLL	16FFnLL	16FnLL	16A#XLL	16A#XLL	16c#XLL	16c#XLL	16c#X	8r	8r	.	8.r	.	8.r	.	16xLL	pp	8.r	.	8r	.	8.r	.	8.r	.	8.r	.	8.r	.	16FFnLL	16A#X 16c#X	8.r	16A#X 16c#X	16d-X
16EEJJ	16EE	16E	16F#X	16F#X	16A#X	16A#X	16r	.	.	.	.	.	.	.	16x	.	.	.	.	.	.	.	.	.	.	.	.	.	16CCn	16r	.	16r	16r
16r	16AAnJJ	16AnJJ	16F#JJ	16F#JJ	16A#JJ	16A#JJ	16r	16AAAn^	16AAn^ 16An	p p	.	.	.	.	16xJJ	.	.	.	16An^	p	.	.	.	.	.	.	.	.	16AAn^JJ	16r	.	16r	16r
=304	=304	=304	=304	=304	=304	=304	=304	=304	=304	=304	=304	=304	=304	=304	=304	=304	=304	=304	=304	=304	=304	=304	=304	=304	=304	=304	=304	=304	=304	=304	=304	=304	=304
16r	16DD#XLL	16D#XLL	16FnLL	16FnLL	16A#XLL	16A#XLL	16r	16EEE-X^ 16EE-X	16E-X^	.	8.r	.	8.r	.	16xLL	.	8.r	.	16E-X^	.	8.r	.	16r	.	16r	.	16r	.	16EE-X^	8.r	16r	8.r	8.r
16CC#XLL	16CC#X	16C#X	16F	16F	16A#	16A#	16A#XLL	16r	16r	.	.	.	.	.	16x	.	.	.	16r	.	.	.	16B-XLL	p	16FLL 16B-X	p	16FLL 16B-X	p	16r	.	16CC#XLL	.	.
16DDnJJ	16DDnJJ	16DnJJ	16GnJJ	16GnJJ	16BnJJ	16BnJJ	16BnJJ	16r	16r	.	.	.	.	.	16xJJ	.	.	.	16r	.	.	.	16c-XJJ	.	16GnJJ 16c-X	.	16GnJJ 16c-X	.	16r	.	16DDJJ	.	.
=305	=305	=305	=305	=305	=305	=305	=305	=305	=305	=305	=305	=305	=305	=305	=305	=305	=305	=305	=305	=305	=305	=305	=305	=305	=305	=305	=305	=305	=305	=305	=305	=305	=305
16DD#XLL	16DD#XLL	16D#XLL	16C#XLL	16G#XLL	16G#XLL	16c#XLL	16c#XLL	8r	8.r	.	8r	.	8r	.	16xLL	.	8r	.	8r	.	16r	.	16d-X	.	16A-XLL 16d-X	.	16A-XLL 16d-X	.	8.r	8.r	16DD#XLL	8.r	8.r
16FF#XJJ	16FF#XJJ	16F#XJJ	16C#JJ	16G#JJ	16G#JJ	16c#JJ	16c#JJ	.	.	.	.	.	.	.	16x	.	.	.	.	.	16C#XLL	p	16r	.	16A- 16d-	.	16A- 16d-	.	.	.	16FF#XJJ	.	.
.	.	.	.	.	.	.	.	(8qC#X/ 8qc#X	.	.	.	.	.	.	.	.	.	.	.	.	.	.	.	.	.	.	.	.	.	.	.	.	.
16r	16r	16r	16r	16r	16r	16r	16r	16CCn^) 16Cn	.	.	16x	p	[16x	p	[16xJJ	.	16Cn^	p	16Cn^	p	16C#JJ	.	16r	.	16A-JJ 16d-	.	16A-JJ 16d-	.	.	.	16r	.	.
=306	=306	=306	=306	=306	=306	=306	=306	=306	=306	=306	=306	=306	=306	=306	=306	=306	=306	=306	=306	=306	=306	=306	=306	=306	=306	=306	=306	=306	=306	=306	=306	=306	=306
16EELL	16EELL	16ELL	16C#X^	16C#X^	16G#X^	16c#X^	16c#X^	8.r	8.r	.	8.r	.	8.x]	.	8.x]	.	8.r	.	8.r	.	[8.C#X	.	[8.d-X	.	[8.A-X [8.d-X	.	[8.A-X [8.d-X	.	16EEnLL	8.r	8.r	8.r	8.r
16DD#X	16DD#X	16D#X	16r	16r	16r	16r	16r	.	.	.	.	.	.	.	.	.	.	.	.	.	.	.	.	.	.	.	.	.	16EE-X	.	.	.	.
16FF#XJJ	16FF#XJJ	16F#XJJ	16r	16r	16r	16r	16r	.	.	.	.	.	.	.	.	.	.	.	.	.	.	.	.	.	.	.	.	.	16GG-XJJ	.	.	.	.
=307	=307	=307	=307	=307	=307	=307	=307	=307	=307	=307	=307	=307	=307	=307	=307	=307	=307	=307	=307	=307	=307	=307	=307	=307	=307	=307	=307	=307	=307	=307	=307	=307	=307
16FFn	16FFnLL	16FnLL	16r	16r	16r	16r	8r	16r	16r	.	8.r	.	8.r	.	8.x	.	8.r	.	16r	.	16C#]	.	16d-]	.	16A-] 16d-]	.	16A-] 16d-]	.	16FFLL	8r	8.r	8r	8r
!	!	!	!	!	!	!	!	!	!LO:TX:t=cresc.	!	!	!	!	!	!	!	!	!	!	!	!	!	!	!	!	!	!	!	!	!	!	!	!
!	!LO:TX:t=cresc.	!LO:TX:t=cresc.	!LO:TX:t=cresc.	!LO:TX:t=cresc.	!LO:TX:t=cresc.	!LO:TX:t=cresc.	!	!	!LO:TX:t=cresc.	!	!	!	!	!	!	!	!	!	!LO:TX:t=cresc.	!	!	!	!	!	!	!	!	!	!	!	!	!	!
16r	16AAn	16An	16GnLL	16GnLL	16BLL	16BLL	.	16AAAn^LL	16AAn^LL 16An	.	.	.	.	.	.	.	.	.	16An^LL	.	16r	.	16r	.	16r	.	16r	.	16AAn^	.	.	.	.
!	!	!	!	!	!	!	!LO:TX:t=cresc.	!	!	!	!	!	!	!	!	!	!	!	!	!	!	!	!	!	!	!	!	!	!	!LO:TX:t=cresc.	!	!LO:TX:t=cresc.	!LO:TX:t=cresc.
16r	16EE-XJJ	16E-XJJ	16GJJ	16GJJ	16BJJ	16BJJ	16B	16EEE-X^JJ 16EE-X	16E-X^JJ	.	.	.	.	.	.	.	.	.	16E-X^JJ	.	16r	.	16r	.	16r	.	16r	.	16EE-X^JJ	16G 16B	.	16G 16B	16B
=308	=308	=308	=308	=308	=308	=308	=308	=308	=308	=308	=308	=308	=308	=308	=308	=308	=308	=308	=308	=308	=308	=308	=308	=308	=308	=308	=308	=308	=308	=308	=308	=308	=308
!	!	!	!	!	!	!	!	!	!	!	!	!	!	!	!	!	!	!	!	!	!	!	!	!	!	!	!	!	!	!	!LO:TX:t=cresc.	!	!
16DDnLL	16DDnLL	16DnLL	16A-XLL	16A-XLL	16c#XLL	16c#XLL	16c#XLL	8.r	8.r	.	8.r	.	8.r	.	8xL	.	8.r	.	8.r	.	8.r	.	8.r	.	8.r	.	8.r	.	8.r	16A-XLL 16c#X	16DDLL	16G#XLL 16c#X	16c#XLL
16EE-X	16EE-X	16E-X	16Bn	16Bn	16d	16d	16dJJ	.	.	.	.	.	.	.	.	.	.	.	.	.	.	.	.	.	.	.	.	.	.	16BnJJ 16d	16DD#X	16BJJ 16d	16dJJ
16EEnJJ	16EEnJJ	16EnJJ	16GJJ	16GJJ	16BJJ	16BJJ	16r	.	.	.	.	.	.	.	16xJk	.	.	.	.	.	.	.	.	.	.	.	.	.	.	16r	16EEJJ	16r	16r
=309	=309	=309	=309	=309	=309	=309	=309	=309	=309	=309	=309	=309	=309	=309	=309	=309	=309	=309	=309	=309	=309	=309	=309	=309	=309	=309	=309	=309	=309	=309	=309	=309	=309
16GG	16GG	16G	16GLL	16GLL	16BLL	16BLL	8r	16r	8.r	.	16r	.	16r	.	16xLL	.	16r	.	16r	.	8.r	.	8r	.	8r	.	8r	.	8r	8.r	16GG	8.r	8.r
!	!	!	!	!	!	!	!	!	!	!	!	!	!LO:TX:t=cresc.	!	!	!	!	!	!	!	!	!	!	!	!	!	!	!	!	!	!	!	!
.	.	.	.	.	.	.	.	(8qCn/ 8qcn	.	.	.	.	.	.	.	.	.	.	.	.	.	.	.	.	.	.	.	.	.	.	.	.	.
16r	16r	16r	16F#X	16F#X	16B	16B	.	16BBB^) 16BB	.	.	16x	.	[8x	.	16x	pp	16BBn^	.	16BBn^	.	.	.	.	.	.	.	.	.	.	.	16r	.	.
!	!	!	!	!	!	!	!	!	!	!	!	!	!	!	!	!	!	!	!	!	!	!	!LO:TX:t=cresc.	!	!LO:TX:t=cresc.	!	!LO:TX:t=cresc.	!	!LO:TX:t=cresc.	!	!	!	!
16FF	16FF	16F	16F#JJ	16F#JJ	16BJJ	16BJJ	16B	16r	.	.	16r	.	.	.	16xJJ	.	16r	.	16r	.	.	.	16B	.	16F#X 16B	.	16F#X 16B	.	16FF	.	16r	.	.
=310	=310	=310	=310	=310	=310	=310	=310	=310	=310	=310	=310	=310	=310	=310	=310	=310	=310	=310	=310	=310	=310	=310	=310	=310	=310	=310	=310	=310	=310	=310	=310	=310	=310
16EELL	16EELL	16ELL	16G#XLL	16G#XLL	16cnLL	16cnLL	16cnLL	8.r	8.r	.	8.r	.	8x]	.	16xLL	.	8.r	.	8.r	.	8r	.	16cnLL	.	16G#XLL 16cn	.	16G#XLL 16cn	.	16EEnLL	8.r	8.r	8.r	8.r
16GG	16GG	16G	16D	16An	16A	16d	16d	.	.	.	.	.	.	.	16x	.	.	.	.	.	.	.	16dnJJ	.	16An 16dn	.	16An 16dn	.	16GG	.	.	.	.
16FF#XJJ	16FF#XJJ	16F#XJJ	16DJJ	16AJJ	16AJJ	16dJJ	16dJJ	.	.	.	.	.	16r	.	16xJJ	.	.	.	.	.	16D	.	16r	.	16AJJ 16d	.	16AJJ 16d	.	16FF#XJJ	.	.	.	.
=311	=311	=311	=311	=311	=311	=311	=311	=311	=311	=311	=311	=311	=311	=311	=311	=311	=311	=311	=311	=311	=311	=311	=311	=311	=311	=311	=311	=311	=311	=311	=311	=311	=311
8r	16AAnLL	16AnLL	16r	16r	16r	16r	16r	16AAAn^LL	16AAn^LL 16An	.	8.r	.	8.r	.	[8.x	.	8.r	.	16An^LL	.	16DKL	.	16r	.	16AKL 16d	.	16AKL 16d	.	16AAn^LL	8.r	8r	8.r	8.r
.	16EE-X	16E-X	16D^	16D^	16A^	16d^	16d^	16EEE-X^JJ 16EE-X	16E-X^JJ	.	.	.	.	.	.	.	.	.	16E-X^JJ	.	[8D^J	.	[8d^	.	[8A^J [8d	.	[8A^J [8d	.	16EE-X^JJ	.	.	.	.
16EE-X	16EE-JJ	16E-JJ	16r	16r	16r	16r	16r	16r	16r	.	.	.	.	.	.	.	.	.	16r	.	.	.	.	.	.	.	.	.	16r	.	16DD#X	.	.
=312	=312	=312	=312	=312	=312	=312	=312	=312	=312	=312	=312	=312	=312	=312	=312	=312	=312	=312	=312	=312	=312	=312	=312	=312	=312	=312	=312	=312	=312	=312	=312	=312	=312
16EEnLL	16EEnLL	16EnLL	8r	8r	8r	8r	8.r	8.r	8.r	.	8.r	.	8.r	.	8xL]	.	8.r	.	8.r	.	8D]	.	8d]	.	8A] 8d]	.	8A] 8d]	.	8.r	8.r	16EELL	8.r	8.r
16FF	16FF	16F	.	.	.	.	.	.	.	.	.	.	.	.	.	.	.	.	.	.	.	.	.	.	.	.	.	.	.	.	16EE#X	.	.
16AA-XJJ	16AA-XJJ	16A-XJJ	16An	16An	16c#X	16c#X	.	.	.	.	.	.	.	.	[16xJk	.	.	.	.	.	16r	.	16r	.	16r	.	16r	.	.	.	16GG#XJJ	.	.
=313	=313	=313	=313	=313	=313	=313	=313	=313	=313	=313	=313	=313	=313	=313	=313	=313	=313	=313	=313	=313	=313	=313	=313	=313	=313	=313	=313	=313	=313	=313	=313	=313	=313
.	.	.	.	.	.	.	.	(8qC-X/ 8qc-X	.	.	.	.	.	.	.	.	.	.	.	.	.	.	.	.	.	.	.	.	.	.	.	.	.
16r	16r	16r	16ALL	16ALL	16c#XLL	16c#XLL	16ALL 16c#X	16BBB-X^) 16BB-X	8.r	.	16x	.	8.x	.	8.x]	.	16BB-X^	.	16BB-X^	.	8.r	.	8.r	.	8.r	.	8.r	.	16r	16ALL 16c#X	8.r	16ALL 16c#X	16c#XLL
16GG-XLL	16G-XLL	16G-XLL	16B-X	16B-X	16d#X	16d#X	16B-X 16d#X	16r	.	.	16r	.	.	.	.	.	16r	.	16r	.	.	.	.	.	.	.	.	.	16GG-XLL	16B-X 16d#X	.	16B-X 16d#X	16d#X
16FFJJ	16FJJ	16FJJ	16c#XJJ	16c#XJJ	16eJJ	16eJJ	16c#XJJ 16e	16r	.	.	16r	.	.	.	.	.	16r	.	16r	.	.	.	.	.	.	.	.	.	16FFJJ	16c#XJJ 16e	.	16c#XJJ 16e	16eJJ
=	=	=	=	=	=	=	=	=	=	=	=	=	=	=	=	=	=	=	=	=	=	=	=	=	=	=	=	=	=	=	=	=	=
*-	*-	*-	*-	*-	*-	*-	*-	*-	*-	*-	*-	*-	*-	*-	*-	*-	*-	*-	*-	*-	*-	*-	*-	*-	*-	*-	*-	*-	*-	*-	*-	*-	*-
!!!system-decoration: [(s1,s2,s3,s4,s5)][(s6,s7,s8,s9,s10,s11)][(s12,s13,s14)]{(s15,s16)}[(s17,s18,s19,s20,s21,s22,s23,s24)]
!!!CDT: 1908/12/10-1992/04/27
!!!CBL: Avignon, France
!!!CDL: Paris, France
!!!CNT: French
!!!AGN: Orchestral; Concerto
!!!MCN: Bernstein, Leonard
!!!MDT: 1949/12/02
!!!MGN: Boston Symphony Orchestra
!!!MLC: Boston, Massachusetts, United States of America
!!!MPD: 1949
!!!MPN: Loriod, Yvonne; Martenot, Ginette
!!!ODT: 1948 (rev. 1990)
!!!PDT: 1953
!!!excerpt-start-measure: 303
!!!excerpt-end-measure: 313
!!!excerpt-start-time: 2:30
!!!excerpt-end-time: 2:36
!!!EEV: 2020/01/22
!!!ONB: Converted from MusicXML on 2020/01/22
